packages/core/src/svgs/ali.svg

<svg width="24" height="24" viewBox="0 0 24 24" fill="none" xmlns="http://www.w3.org/2000/svg">
<g clip-path="url(#clip0_31_5909)">
<path d="M0 0H24V24H0V0Z" fill="#010642"/>
<path d="M12 18.8574C15.7871 18.8574 18.8571 15.7873 18.8571 12.0002C18.8571 8.21311 15.7871 5.14307 12 5.14307C8.21287 5.14307 5.14282 8.21311 5.14282 12.0002C5.14282 15.7873 8.21287 18.8574 12 18.8574Z" fill="#29ABE2"/>
<path d="M11.7556 6.42871C11.7685 6.60871 11.8628 6.87014 12.1413 7.14014C12.5442 7.52157 13.0156 7.933 13.2042 8.09157C13.2899 8.16871 13.3756 8.36585 13.0756 8.53728C12.7028 8.75157 12.5485 8.84585 12.5313 8.96585C12.5185 9.09014 12.7199 9.25728 12.7842 9.30871C12.8442 9.35157 13.0156 9.54871 12.5956 9.73728C12.6728 9.73728 12.8313 9.78014 12.8313 9.96443L12.7156 10.0501C12.587 10.1359 12.437 10.2344 12.437 10.4573C12.437 10.5644 12.4585 10.7873 12.6556 10.9287C12.8399 11.0659 13.1313 11.3616 12.8442 11.6701C12.6556 11.8716 11.9613 12.3301 11.3613 12.5744C11.2113 12.6387 10.9499 12.763 10.8899 12.943C10.8342 13.093 10.9242 13.2173 11.0099 13.3416C11.057 13.4144 11.1085 13.4873 11.1256 13.5559C11.1556 13.6544 11.1942 13.8773 10.9413 14.0959C10.907 14.1259 10.8556 14.1516 10.8128 14.1816C10.7056 14.2373 10.5985 14.2973 10.5985 14.4173C10.5985 14.4944 10.6628 14.653 10.8642 14.6659C10.7742 14.6659 10.6242 14.6873 10.5513 14.7644C10.4828 14.8373 10.487 14.9359 10.5299 15.0173C10.5556 15.0687 10.5942 15.103 10.6242 15.1416C10.697 15.2101 10.7528 15.2701 10.667 15.4159C10.6199 15.4973 10.5342 15.5873 10.3928 15.6773C10.2728 15.7459 10.0499 15.9216 10.097 16.1059C10.1399 16.2559 10.2685 16.363 10.3842 16.4487C10.8392 16.7518 11.238 17.1318 11.5628 17.5716C10.1684 17.449 8.86972 16.8112 7.92036 15.7826C6.971 14.7539 6.43908 13.4084 6.42847 12.0087C6.42847 9.03871 8.78561 6.60871 11.7556 6.42871Z" fill="#010642"/>
</g>
<defs>
<clipPath id="clip0_31_5909">
<rect width="24" height="24" fill="white"/>
</clipPath>
</defs>
</svg>

<svg xmlns="http://www.w3.org/2000/svg" width="24" height="24" fill="none" viewBox="0 0 24 24"><g clip-path="url(#a)"><path fill="#010642" d="M0 0h24v24H0z"/><path fill="#29ABE2" d="M12 18.857a6.857 6.857 0 1 0 0-13.714 6.857 6.857 0 0 0 0 13.714"/><path fill="#010642" d="M11.756 6.429c.012.18.107.441.385.711.403.382.875.793 1.063.952.086.077.172.274-.128.445-.373.215-.527.309-.545.429-.013.124.189.291.253.343.06.043.232.24-.188.428.077 0 .235.043.235.227l-.115.086c-.129.086-.279.184-.279.407 0 .107.022.33.219.472.184.137.475.433.188.741-.188.202-.883.66-1.483.904-.15.065-.411.189-.471.369-.056.15.034.274.12.399.047.072.098.145.116.214.03.098.068.321-.185.54-.034.03-.085.056-.128.086-.107.055-.215.115-.215.235 0 .077.065.236.266.249-.09 0-.24.021-.313.098-.068.073-.064.172-.021.253.026.052.064.086.094.125.073.068.129.128.043.274a.8.8 0 0 1-.274.261c-.12.069-.343.245-.296.429.043.15.172.257.287.343.455.303.854.683 1.179 1.123a5.627 5.627 0 0 1-5.135-5.563c0-2.97 2.358-5.4 5.328-5.58"/></g><defs><clipPath id="a"><path fill="#fff" d="M0 0h24v24H0z"/></clipPath></defs></svg>
